X:1
T:Victimae Paschali
T:Josquin desPrez (based on  D'ung aultre amer) adapted for satb, 1570 text, BMarble
T:Easter Sequence
T:Victimae Paschali
T:Copyright © 2015 by The Choral Public Domain Library. Edition may be freely distributed, duplicated, performed or recorded.
T:Copyright © 2015 by The Choral Public Domain Library. Edition may be freely distributed, duplicated, performed or recorded.
T:Copyright © 2015 by The Choral Public Domain Library. Edition may be freely distributed, duplicated, performed or recorded.
T:Copyright © 2015 by The Choral Public Domain Library. Edition may be freely distributed, duplicated, performed or recorded.
T:Copyright © 2015 by The Choral Public Domain Library. Edition may be freely distributed, duplicated, performed or recorded.
T:Copyright © 2015 by The Choral Public Domain Library. Edition may be freely distributed, duplicated, performed or recorded.
T:Copyright © 2015 by The Choral Public Domain Library. Edition may be freely distributed, duplicated, performed or recorded.
T:Copyright © 2015 by The Choral Public Domain Library. Edition may be freely distributed, duplicated, performed or recorded.
T:Copyright © 2015 by The Choral Public Domain Library. Edition may be freely distributed, duplicated, performed or recorded.
T:Copyright © 2015 by The Choral Public Domain Library. Edition may be freely distributed, duplicated, performed or recorded.
T:Copyright © 2015 by The Choral Public Domain Library. Edition may be freely distributed, duplicated, performed or recorded.
C:Josquin desPrez
C:(based on  D'ung aultre amer)
C:adapted for satb, 1570 text, BMarble
Z:Easter Sequence
Z:Copyright © 2015 by The Choral Public Domain Library. Edition may be freely distributed, duplicated, performed or recorded.
%%score [ 1 2 3 4 ]
L:1/8
Q:1/4=60
M:2/1
K:G
V:1 treble nm="SOPRANO" snm="S."
V:2 treble nm="Alto" snm="A."
V:3 treble-8 transpose=-12 nm="Tenor" snm="T."
V:4 bass nm="BASS" snm="B."
V:1
 A16 | B8 A8 | e12 d2 c2 | B8 B8 | B8 e8- | e8 d8 | c12 B2 A2 | G16 | z8 G8 | A8 c8 | B16 | %11
w: Vic-|ti- mae|pas- * *|* cha-|li lau-|* des|im- mo- *|lent|Chri-|sti- *|a-|
 A12 G4 | F6 E2 E8- | E8 E8 | E8 F8- | F4 E4 F8 | G4 E4 E8- | E8 D8 | E16- | E16 | z16 | c16 | %22
w: ni. A-|gnus re- de-|* mit|o- ves:|_ Chris- tus|in- no- cens|_ Pa-|tri|_||re-|
 d8 d8 | e16 | e8 e8 | d4 d8 c2 B2 | A8 G8- | G4 F2 E2 D8 | E12 C4 | C8 D8 | C8 c8- | c4 B2 A2 B8 | %32
w: con- ci-|li-|a- vit|pec- ca- * *|* to-||res. Mors|et vi-|ta du-|* * * el-|
 c16 | z16 | c16 | B8 B8 | A4 d8 c4 | B4 A4 B8 | c8 A8 | e8 d4 d4- | d4 c4 B4 A4 | c8 A4 B4- | %42
w: lo||con-|fli- xe-|re mi- *|ran- do: dux|vi- tae|mor- tu- us,|_ re- * *|* gnat vi-|
 B2 A2 G2 F2 G4 =F4 | E4 A8 ^G4 | A16- | A16 || z16 | z16 | z16 | z16 | z16 | z16 | z16 | z16 | %54
w: ||vus.|_|||||||||
 z16 | z16 | z16 | z16 | A16 | A12 G2 F2 | E8 A8- | A8 ^G8 | A8 A8 | A8 B8 | c8 B4 G4 | A8 G8- | %66
w: ||||Se-|pul- * *|crum Chris-||ti vi-|ven- *|* tis, et|glo- *|
 G8 A4 G4 | ^F8 E8- | E8 G4 A4 | B8 c8- | c4 B2 A2 A8- | A8 ^G8 | A16 | z8 A8 | c8 c8 | B8 B8 | %76
w: * ri- am|vi- di|_ re- sur-|gen- *|||tis:|An-|ge- li-|cos tes-|
 A8 A8 | B12 A2 G2 | F16 | E4 G8 F2 E2 | D8 E8 | F16 | D8 G8 | F4 E4 E8- | E8 D8 | E8 A,8 | %86
w: tes, su-|da- ri- *|um|et ves- * *|tes. Sur-|re-|xit Chri-|stus spes me-||a. Sci-|
 C4 D4 E8 | z8 G8 | F4 E4 E8- | E8 ^D8 | E16 | z8 E8 | G4 A4 B8- | B8 d4 B4 | c12 B2 A2 | G8 A8 | %96
w: * * mus|stum|sur- re- xis-||se|ex|mor- tu- is|_ ve- re:|tu _ _|_ _|
 B8 G8 | c4 B4 A8 | G16 | c8 B8 | c8 d4 c4 | B4 A4 A8- | A8 ^G8 | A16- | A16 |] %105
w: no- bis,|vi- * ctor|Rex|mi- se-|re- re. A-|men. Al- le-|* lu-|ia.|_|
V:2
 z16 | z16 | A,2 B,2 C2 D2 E6 F2 | G4 G,4 B,6 C2 | D6 C2 A,4 E4- | E2 F2 G12 | %6
w: ||Vic- * * * * ti-|mae pas- cha- li|lau- * des im-|* mo- lent|
 E2 D2 C2 B,2 A,4 C4- | C4 B,2 A,2 G,4 E,4 | F,4 A,4 E,8 | z8 E8- | E8 G8 | A8 E8 | D8 E8 | E16 | %14
w: Chri- * * * * *|* * * * sti-|a- * ni.|A-|* gnus|re- de-|mit o-|ves:|
 z16 | z8 D8 | C4 B,4 C4 B,4- | B,4 A,4 B,8 | E,4 E6 D2 C2 B,2 | A,4 G,2 F,2 E,4 G,4 | D,4 D8 E4- | %21
w: |Chris-|tus _ in- no-|* cens Pa-|tri re- * * *|con- ci- * li- a-|vit pec- *|
 E4 D2 E2 =F2 E2 D2 C2 | B,16 | E,16- | E,8 C8 | G,4 G6 F2 E2 D2 | C4 A,4 B,8 | E,8 z4 D4 | %28
w: * ca- * to- * * *||res.|_ Mors|et vi- * * *||ta du-|
 C4 A,6 B,2 C2 D2 | E4 A,4 =F8 | E8 C8 | D16 | C16 | z8 G,8 | G8 E4 G4- | G4 F2 E2 D6 E2 | %36
w: el- lo _ _ _|con- fli- xe-|re mi-|ran-|do:|dux|vi- tae mor-|* tu- * us, _|
 =F2 E2 D2 C2 B,8 | z4 E4 ^F4 G4 | C4 E6 D2 C2 B,2 | A,8 F,4 G,4 | F,4 A,4 G,4 A,4- | %41
w: _ _ _ _ _|re- * *|gnat vi- * * *|* vus, dux|vi- * tae mor-|
 A,4 E4 =F4 D4- | D4 E8 A,4- | A,2 B,2 C2 D2 E8- | E4 E,4 =F,8 | E,16 || z16 | z16 | z16 | z16 | %50
w: * tu- us, re-|* * gnat|_ _ _ _ _|* vi- *|vus.|||||
 z16 | z16 | z16 | z16 | z16 | z16 | z16 | z16 | A,8 C8 | D8 E8 | C8 D8 | C4 A,4 B,8 | A,8 z8 | %63
w: ||||||||Se- pul-|crum Chris-|ti vi-|ven- * *|tis,|
 A,8 D8 | C8 D4 E4 | C4 D4 E4 C4 | B,8 A,8- | A,16 | E,12 ^F,4 | G,8 A,8 | C12 D4- | D4 C4 B,8 | %72
w: et glo-|ri- am vi-|di re- sur- *|gen- tis:|_|An- *|ge- li-|cos tes-||
 A,16 | G,8 C8- | C4 B,4 A,8 | B,8 G,8 | A,4 A6 ^F2 A4 | G4 F2 E2 D4 E4 | ^C4 D6 C2 A,2 B,2 | %79
w: tes,|su- da-|* ri- um|et ves-|tes. Sur- * re-|xit _ _ _ Chri-|stus spes _ _ _|
 =C6 B,2 G,4 A,4 | B,4 D8 ^C4 | D8 z4 A,4 | A,4 B,4 =C8 | A,8 E8- | E4 F4 G8 | A16 | E16 | z8 E8 | %88
w: me- * a: prae-|ce- det _|vos in|Ga- li- lae-|am. Sci-|* * mus|Chri-|stum|sur-|
 D8 E8 | F16 | E8 E8 | G12 F4 | E8 D4 G4- | G4 F2 E2 D4 G4 | E4 A8 D4 | E2 F2 G2 E2 F8 | %96
w: re- *|xis-|se ex|mor- *|tu- is ve-||re, tu no-|bis, _ _ _ _|
 z4 B,6 A,2 B,2 C2 | A,4 E6 C2 =F4 | E8 z4 E4 | C4 A,4 E,8 | E8 z4 E4 | G4 G,4 C6 D2 | E8 z4 E,4- | %103
w: vi- * * *|* ctor _ _|Rex mi-|se- * re-|re. A-|men. Al- le- lu-|ia, Al-|
 E,4 =F,4 E,8 | A,16 |] %105
w: * le- lu-|ia.|
V:3
 A16 | G8 A8 | c16 | d16- | d8 c8 | B16 | A8 e8- | e4 d4 B8 | d4 c4 B8 | A16 | z8 E8 | F4 G4 A8 | %12
w: Vic-|ti- mae|pas-|cha-|* li|lau-|des im-|* mo- lent|Chri- sti- a-|ni.|A-|gnus re- de-|
 B8 c8- | c4 B2 A2 B8 | c8 d6 c2 | B2 A2 A8 G2 F2 | E8 z8 | z4 E4 F4 G4 | C16 | c16 | d8 B4 c4- | %21
w: mit o-|* * * ves:|Chris- tus _|_ _ in- no- *|cens|Pa- * *|tri|re-|con- ci- li-|
 c2 B2 A2 G2 A8 | G8 B8 | c8 B8- | B8 A8 | z16 | e12 f4 | g8 a8- | a8 e8- | e8 d8 | e8 e8 | z16 | %32
w: * * * * a-|vit pec-|ca- to-|* res.||Mors _|et vi-|* ta|_ du-|el- lo||
 e16- | e8 d8 | e16 | d16 | z8 d8- | d4 c4 B8 | A16 | c8 d8 | A8 B4 c4- | c2 B2 A2 G2 A4 G4 | %42
w: con-|* fli-|xe-|re|mi-|* * ran-|do:|dux vi-|tae mor- tu-|* * * * * us,|
 B12 c2 d2 | c4 A4 B8 | A16- | A16 || z16 | z16 | E12 F4 | G8 A8 | c12 d4- | d4 c4 B8 | A16 | %53
w: re- * *|* gnat vi-|vus.|_|||Dic _|no- bis|Ma- *|* * ri-|a,|
 z8 G8 | c8 B8 | A8 B8- | B4 A4 A8- | A8 ^G8 | A16 | D8 A8- | A8 D8 | A4 =F4 E8 | e8 d4 c4- | %63
w: quid|vi- dis-|ti in|_ _ vi-||a?|Se- pul-|* crum|Chris- * ti|vi- * ven-|
 c4 B2 A2 G8 | z4 A4 G4 E4 | =F8 E8 | z16 | z16 | z16 | z16 | z16 | z16 | z16 | z16 | c8 e8 | %75
w: * * * tis,|et glo- *|ri- am|||||||||Sur- re-|
 d8 e8 | ^c8 d8- | d4 =c4 B8 | A16 | z16 | z8 A8 | d12 A4 | d8 e8 | d4 e4 c4 A4- | A4 c4 B8 | %85
w: xit Chris-|tus spes|_ _ me-|a:||prae-|ce- det|vos _|in _ Ga- *|* li- lae-|
 A8 e8- | e4 f4 g8 | a8 e8 | A4 d4 c4 B4- | B4 A2 G2 B8- | B4 c4 B4 e4- | e4 d2 c2 B8 | E8 z4 d4- | %93
w: am. Sci-|* * mus|Chri- stum|sur- re- xis- se|_ ex _ mor-||* tu- * is|_ ve-|
 d4 c4 B8 | A8 z4 G4 | c4 B4 d8- | d8 e8 | e8 c4 d4 | B16 | A8 z4 G4 | c8 z4 c4 | d8 z4 A4 | %102
w: |re: tu|no- bis, vi-|* ctor|Rex mi- se-|re-|re. A-|men, a-|men. Al-|
 B8 B8 | A16- | A16 |] %105
w: le- lu-|ia.|_|
V:4
 z16 | z16 | A,16 | G,16- | G,8 A,8 | E,8 G,8 | A,12 G,2 F,2 | E,12 D,2 C,2 | B,,4 A,,4 E,8 | %9
w: ||Vic-|ti-|* mae|pas- *|cha- li _|lau- * *||
 A,,16 | z16 | z16 | z16 | E,16- | E,8 D,8- | D,16 | E,12 D,4 | C,8 B,,8 | A,,16- | A,,16 | z16 | %21
w: des||||Chris-|* tus|_|in- no-|cens Pa-|tri|_||
 z16 | z8 G,,8 | C,6 D,2 E,6 F,2 | G,8 A,8 | B,8 G,8 | A,8 E,8 | z4 E,4 F,4 D,4 | A,8 z4 A,4- | %29
w: |re-|con _ ci- li-|a- vit|pec- ca-|to- res.|Mors et vi-|ta du-|
 A,8 D,8 | A,8 z4 E,4 | =F,8 G,8 | C,8 C8- | C4 B,2 A,2 B,8 | C8 C,8 | G,8 z4 G,4 | =F,8 G,8 | %37
w: * el-|lo con-|fli- *|xe- *||* re|_ mi-|ran- do:|
 z4 A,8 G,4 | A,16 | z4 A,,4 B,,4 G,,4 | D,4 A,,4 E,4 A,,4 | A,8 =F,4 G,4- | %42
w: dux _|_|vi- * tae|mor- tu- us, _|re- gnat vi-|
 G,2 F,2 E,2 D,2 E,4 D,4 | A,8 E,8 | C,4 A,,4 D,6 C,2 | A,,16 || E,12 F,4 | G,8 A,8 | %48
w: |vus, re-|* gnat vi- *|vus.|Dic _|no- bis|
 A,,4 C,8 D,4 | B,,8 A,,8 | z4 A,8 B,4- | B,2 A,2 G,2 F,2 ^G,8 | A,8 D,8 | =G,12 F,4 | E,8 D,8 | %55
w: Ma- ri- *|* a,|Ma- *|* * * * ri-|a, quid|vi- *|dis- *|
 C,8 D,8 | E,8 C,4 D,4- | D,2 C,2 B,,2 A,,2 B,,8 | A,,16 | z16 | z16 | z16 | z16 | z16 | z16 | %65
w: |ti in vi-||a?|||||||
 z16 | z16 | z16 | z16 | z16 | z16 | z16 | z16 | z16 | z16 | z8 E,8 | F,8 D,8 | G,12 F,2 E,2 | %78
w: ||||||||||Sur-|re- xit|Chri- stus _|
 F,4 D,6 E,2 F,2 G,2 | A,4 E,8 D,2 C,2 | B,,8 A,,8 | z4 D,4 D,8- | D,8 C,8 | D,4 C,4 A,,8 | %84
w: spes me- * * *|a: prae- ce- *|det vos|in Ga-|* li-|lae- * am.|
 z4 A,4 B,4 D4 | C4 A,8 G,2 F,2 | A,4 G,2 F,2 E,8 | =F,4 D,4 E,4 C,4 | D,4 B,,4 C,4 E,4 | B,,16 | %90
w: Sci- * mus|Chri- * * *|* * * stum|sur- re- xis- *|se ex mor- *|tu-|
 E,16- | E,16 | z8 G,8- | G,16 | A,8 =F,4 G,4 | E,8 z4 D,4 | G,8 E,8 | A,6 G,2 A,4 D,4 | %98
w: is|_|ve-|||re: tu|no- bis,|vi- * * ctor|
 E,8 z4 E,4 | =F,8 G,8 | A,8 z4 A,4 | G,8 =F,8 | E,8 E,8 | A,,16- | A,,16 |] %105
w: Rex mi-|se- re-|re. A-|men. Al-|le- lu-|ia.|_|

